X: 054
T: Lady Mary Lindsay's Jig
C: attr. John French (1753-1803)
R: jig
B: "John French Collection", John French ed. p.5 #4
S: http://www.heallan.com/french.asp
Z: 2012 John Chambers <jc:trillian.mit.edu>
M: 6/8
L: 1/8
K: Gm
G |\
(G>AG) Bcd | (g/a/b)a g2d | fdf {d}c2B | Afd cAF |\
G2B A2c | B2d gdg | f2d cAF | G3 d2 :|
A |\
(B>cB) fdB | bab fdB | c=ef Bdf | Acf cAF |\
B>cB fdB | bfd fdB | cfd cAF | G3 d2 ||
A |\
B>cB fdB | bab fdB | Tc2B ABG | FcB AGF | GDG ADA | BDB AGF | Afd cAF | G3 d2 |]

%%sep 2 1 500
%%sep 1 1 500

